img/meeting-room 1.svg

<svg width="32" height="32" viewBox="0 0 32 32" fill="none" xmlns="http://www.w3.org/2000/svg">
<path d="M28.25 7.5C30.3179 7.5 32 5.81787 32 3.75C32 1.68213 30.3179 0 28.25 0C26.1821 0 24.5 1.68213 24.5 3.75C24.5 5.81787 26.1821 7.5 28.25 7.5ZM28.25 2.5C28.9392 2.5 29.5 3.06079 29.5 3.75C29.5 4.43921 28.9392 5 28.25 5C27.5608 5 27 4.43921 27 3.75C27 3.06079 27.5608 2.5 28.25 2.5ZM3.75 7.5C5.81787 7.5 7.5 5.81787 7.5 3.75C7.5 1.68213 5.81787 0 3.75 0C1.68213 0 0 1.68213 0 3.75C0 5.81787 1.68213 7.5 3.75 7.5ZM3.75 2.5C4.43921 2.5 5 3.06079 5 3.75C5 4.43921 4.43921 5 3.75 5C3.06079 5 2.5 4.43921 2.5 3.75C2.5 3.06079 3.06079 2.5 3.75 2.5ZM28.2695 8.6875C28.2634 8.6875 28.2573 8.6875 28.2512 8.6875C25.6638 8.6875 24.6829 10.5713 24.0647 12.4153C23.8545 13.0425 23.3982 14.4128 23.0986 15.3125H21.625V12.4375C21.625 10.3696 19.9429 8.6875 17.875 8.6875H14.125C12.0571 8.6875 10.375 10.3696 10.375 12.4375V15.3125H8.90137C8.60181 14.4128 8.14551 13.0425 7.9353 12.4153C7.31689 10.5713 6.33643 8.6875 3.74878 8.6875C3.74268 8.6875 3.73633 8.6875 3.73022 8.6875C1.67334 8.69458 0 10.377 0 12.4375V19.25C0 20.8796 1.04517 22.269 2.5 22.7849V22.8125C2.53223 22.8125 2.56372 22.8149 2.59546 22.8174C2.73462 22.8625 2.8772 22.8999 3.02295 22.9287C3.45142 23.127 3.75 23.5601 3.75 24.0625V32H6.25V24.0625C6.25 23.6936 6.19556 23.3372 6.0957 23H7.5625C8.25171 23 8.8125 23.5608 8.8125 24.25V32H11.3125V24.25C11.3125 22.1821 9.63037 20.5 7.5625 20.5H3.75C3.71777 20.5 3.68628 20.4976 3.65454 20.4951C3.51538 20.45 3.3728 20.4126 3.22705 20.3838C2.79858 20.1855 2.5 19.7524 2.5 19.25V12.4375C2.5 11.7507 3.05591 11.1899 3.73901 11.1875C4.30396 11.1855 4.8855 11.1836 5.5647 13.2097C5.8894 14.1782 6.80469 16.9294 6.81396 16.957L7.09839 17.8125H24.9016L25.186 16.957C25.1953 16.9294 26.1106 14.1782 26.4353 13.2097C27.1143 11.1836 27.696 11.1863 28.261 11.1875C28.9441 11.1899 29.5 11.7507 29.5 12.4375V19.25C29.5 19.7524 29.2014 20.1855 28.7729 20.3838C28.6272 20.4126 28.4846 20.45 28.3455 20.4951C28.3137 20.4976 28.2822 20.5 28.25 20.5H24.5C22.4321 20.5 20.75 22.1821 20.75 24.25V32H23.25V24.25C23.25 23.5608 23.8108 23 24.5 23H25.9043C25.8044 23.3372 25.75 23.6936 25.75 24.0625V32H28.25V24.0625C28.25 23.5601 28.5486 23.127 28.9771 22.9287C29.1228 22.8999 29.2654 22.8625 29.4045 22.8174C29.4363 22.8149 29.4678 22.8125 29.5 22.8125V22.7849C30.9548 22.269 32 20.8796 32 19.25V12.4375C32 10.377 30.3267 8.69458 28.2695 8.6875ZM12.875 12.4375C12.875 11.7483 13.4358 11.1875 14.125 11.1875H17.875C18.5642 11.1875 19.125 11.7483 19.125 12.4375V15.3125H12.875V12.4375ZM16 7.5C18.0679 7.5 19.75 5.81787 19.75 3.75C19.75 1.68213 18.0679 0 16 0C13.9321 0 12.25 1.68213 12.25 3.75C12.25 5.81787 13.9321 7.5 16 7.5ZM16 2.5C16.6892 2.5 17.25 3.06079 17.25 3.75C17.25 4.43921 16.6892 5 16 5C15.3108 5 14.75 4.43921 14.75 3.75C14.75 3.06079 15.3108 2.5 16 2.5Z" fill="#10375C"/>
</svg>

<svg width="32" height="32" fill="none" xmlns="http://www.w3.org/2000/svg"><path d="M28.25 7.5A3.754 3.754 0 0032 3.75 3.754 3.754 0 0028.25 0a3.754 3.754 0 00-3.75 3.75 3.754 3.754 0 003.75 3.75zm0-5a1.25 1.25 0 110 2.5 1.25 1.25 0 010-2.5zm-24.5 5A3.754 3.754 0 007.5 3.75 3.754 3.754 0 003.75 0 3.754 3.754 0 000 3.75 3.754 3.754 0 003.75 7.5zm0-5a1.25 1.25 0 110 2.5 1.25 1.25 0 010-2.5zm24.52 6.188h-.019c-2.587 0-3.568 1.883-4.186 3.727l-.966 2.898h-1.474v-2.876a3.754 3.754 0 00-3.75-3.75h-3.75a3.754 3.754 0 00-3.75 3.75v2.876H8.901c-.3-.9-.755-2.27-.966-2.898-.618-1.844-1.599-3.727-4.186-3.727H3.73A3.754 3.754 0 000 12.438v6.812a3.756 3.756 0 002.5 3.535v.027c.032 0 .064.003.095.005.14.046.282.083.428.112.428.198.727.631.727 1.134V32h2.5v-7.938A3.73 3.73 0 006.096 23h1.466c.69 0 1.25.56 1.25 1.25V32h2.5v-7.75a3.754 3.754 0 00-3.75-3.75H3.75a.99.99 0 01-.095-.005 3.734 3.734 0 00-.428-.111A1.25 1.25 0 012.5 19.25v-6.813a1.25 1.25 0 011.239-1.25c.565-.002 1.147-.003 1.826 2.023.324.968 1.24 3.72 1.249 3.747l.284.855h17.804l.284-.855c.01-.028.925-2.779 1.25-3.747.678-2.026 1.26-2.024 1.825-2.023a1.25 1.25 0 011.239 1.25v6.813c0 .502-.299.936-.727 1.134a3.732 3.732 0 00-.427.111 1.211 1.211 0 01-.096.005H24.5a3.754 3.754 0 00-3.75 3.75V32h2.5v-7.75c0-.69.56-1.25 1.25-1.25h1.404c-.1.337-.154.694-.154 1.063V32h2.5v-7.938c0-.502.299-.935.727-1.133.146-.03.288-.066.427-.112.032-.002.064-.005.096-.005v-.027A3.756 3.756 0 0032 19.25v-6.813a3.754 3.754 0 00-3.73-3.75zm-15.395 3.75c0-.69.56-1.25 1.25-1.25h3.75c.69 0 1.25.56 1.25 1.25v2.874h-6.25v-2.874zM16 7.5a3.754 3.754 0 003.75-3.75A3.754 3.754 0 0016 0a3.754 3.754 0 00-3.75 3.75A3.754 3.754 0 0016 7.5zm0-5A1.25 1.25 0 1116 5a1.25 1.25 0 010-2.5z" fill="#10375C"/></svg>
